X: 5078
T: Bride's Favourite, The
R: jig
M: 6/8
K: Dmajor
D2 D FEF|DFA dAF|E2E GFE|DFA dAF|
D2D FEF|DFA dAF|E2E GFE|FDD D3:|
|:DFA ddd|cec dAF|DFA dcB|cBA B2c|
ddd cec|dAF DFE|G2A GFE|FDD D3:|
|:DFA d2d|BAG GFE|DFA ded|cec d2e|
fdf ece|dBd cAc|BAG ABc|cdd dAF:|

